!!!COM: Mozart
!!!OTL: 8 Variationen uber das Lied "Ein Weib ist das herrlichste Ding"
!!!Variation: Variation 1 d
**function	**harm	**kern	**kern
*	*	*clefF4	*clefG2
*	*	*k[b-]	*k[b-]
*M3/4	*M3/4	*M3/4	*M3/4
*F:	*F:	*F:	*F:
4.T	4.I	4.r	8cJ
.	.	.	8dL
.	.	.	8eJ
=81	=81	=81	=81
2.T	2.I	2F	8fL
.	.	.	8cJ
.	.	.	8AL)
.	.	.	(8fJ
.	.	4r	8aL
.	.	.	8fJ
=82	=82	=82	=82
2.T	2.V	2C	8gL
.	.	.	8eJ
.	.	.	8cL)
.	.	.	(8gJ
.	.	4r	8b-L
.	.	.	8gJ
=83	=83	=83	=83
4T	4I	(4F	8aL
.	.	.	8eJ
4T	4vi	4D	8fL
.	.	.	8c#J
4T	4iib	4BB-)	8dL
*	*	*	*^
.	.	.	8gJ)	8b-
=84	=84	=84	=84	=84
4T	4Cc	2C	(4f	4a
2T	2V	.	8eL)	8g
*	*	*	*v	*v
.	.	.	8cc'J
.	.	4r	8cc'L
.	.	.	8cc'J
=85	=85	=85	=85
4T	4Ib	(4A 4f	(8ddL
.	.	.	8ccJ)
4T	4V7c	4G 4e	(8ccL
.	.	.	8b-J)
4T	4I	4F) 4f	(8b-L
.	.	.	8aJ)
=86	=86	=86	=86
2.T	2.iib	2B- 2d	(8gL
.	.	.	8ddJ
.	.	.	8ccL
.	.	.	8b-J
.	.	4r	8aL
.	.	.	8gJ
=87	=87	=87	=87
*	*	*^	*
4T	4Cc	(4A	2.C	8fL
.	.	.	.	8f#J
2T	2V7	4B-	.	8gL)
.	.	.	.	(16b-L
.	.	.	.	16aJJ
.	.	4E)	.	16ccLL
.	.	.	.	16b-
.	.	.	.	16dd
.	.	.	.	16ccJJ)
=88	=88	=88	=88	=88
*	*	*	*	*^
2T	2I	2F	2FF	(4g	4b-
.	.	.	.	8fL)	8a
*	*	*	*	*v	*v
.	.	.	.	8cc'J
*	*	*v	*v	*
4T	4V	4r	8cc'L
.	.	.	8cc'J
=89	=89	=89	=89
4T	4Ib	(4A 4f	(8ddL
.	.	.	8ccJ)
4T	4V7c	4G 4e	(8ccL
.	.	.	8b-J)
4T	4I	4F) 4f	(8b-L
.	.	.	8aJ)
=90	=90	=90	=90
2.P	2.iib	2B- 2d	8g'L
.	.	.	(8ddJ 8ff
.	.	.	8ccL 8ee
.	.	.	8b-J 8dd
.	.	4r	8aL 8cc
.	.	.	8gJ) 8b-
=91	=91	=91	=91
*	*	*^	*
4D	4Cc	(4F	2.C	(8fL 8a
.	.	.	.	8ccJ
2D	2V7	4E	.	8b-L
.	.	.	.	8gJ
.	.	4B-)	.	8b-L
.	.	.	.	8eJ)
*	*	*v	*v	*
=92	=92	=92	=92
2T	2I	4F 4A	4f
.	.	4FF	4r
*-	*-	*-	*-
